StripePaymentsUI/StripePaymentsUI/Resources/StripePaymentsUI.xcassets/Cards/stp_card_cvc_amex.imageset/cvcAmexLight.svg

<svg fill="none" height="17" viewBox="0 0 26 17" width="26" xmlns="http://www.w3.org/2000/svg" xmlns:xlink="http://www.w3.org/1999/xlink"><clipPath id="a"><path d="m0 0h26v17h-26z"/></clipPath><g clip-path="url(#a)" clip-rule="evenodd" fill-rule="evenodd"><path d="m16.5649 13.7621h-6.4375c-.52808 0-.81246-.2428-.81246-.8095s.28438-.8095.81246-.8095h6.4375c.5282 0 .8125.2428.8125.8095s-.2843.8095-.8125.8095zm-8.87496 0h-4.4375c-.52812 0-.8125-.2428-.8125-.8095s.28438-.8095.8125-.8095h4.4375c.52813 0 .8125.2428.8125.8095s-.28437.8095-.8125.8095z" fill="#000" fill-opacity=".3"/><path d="m20.3125 11.3333c-1.5084 0-2.9551-.597-4.0217-1.65969-1.0666-1.06271-1.6658-2.50405-1.6658-4.00694 0-1.5029.5992-2.94424 1.6658-4.00694 1.0666-1.062708 2.5133-1.65973 4.0217-1.65973s2.9551.597022 4.0217 1.65973c1.0666 1.0627 1.6658 2.50404 1.6658 4.00694 0 1.50289-.5992 2.94423-1.6658 4.00694-1.0666 1.06269-2.5133 1.65969-4.0217 1.65969zm-2.2587-8.01425h-.6419l-1.5681.79333v.80953l1.2431-.64762v3.74h.975v-4.69524zm1.8687.64762c.4631 0 .7881.25904.7881.63143 0 .40476-.3818.68809-.9343.68809h-.2438v.6881h.2925c.585 0 .9831.29143.9831.71238 0 .40476-.39.68-.9425.68-.4062 0-.8125-.12953-1.235-.38048v.80952c.455.19429.91.29953 1.3569.29953 1.0644 0 1.7956-.54238 1.7956-1.32762 0-.55048-.3412-.99572-.91-1.17381.4875-.1619.8044-.59095.8044-1.07667 0-.76095-.6744-1.27904-1.6494-1.27904-.4395.00485-.8734.09849-1.2756.27523v.79334c.39-.21857.7881-.34 1.17-.34zm3.51 1.76476c.5931 0 1.0075.34809 1.0075.80143 0 .47762-.4144.80952-1.0075.80952-.3575 0-.7312-.11333-1.1131-.34809v.83381c.3981.17809.8044.26714 1.2025.26714.2112 0 .4062-.03238.5931-.08095.4225-.6881.6663-1.48143.6663-2.33143l-.0163-.34c-.3021-.17816-.6484-.26794-.9994-.25905-.1462 0-.3006.0081-.4631.03238v-1.05238h1.17c-.1015-.25912-.2266-.50841-.3737-.74476h-1.6413v2.55c.325-.08095.65-.13762.975-.13762z" fill="#656565"/><path d="m16.2958 9.6736c1.0666 1.0627 2.5133 1.6597 4.0217 1.6597 1.354 0 2.6582-.481 3.6825-1.34811v5.01901c-.0065.5345-.221 1.0446-.5963 1.4187-.3754.374-.8811.5815-1.4065.577h-19.99444c-.26084.0022-.51955-.0478-.76136-.1473-.241814-.0996-.461995-.2466-.64797-.4327s-.334102-.4077-.435923-.652c-.1018215-.2444-.15534243-.5068-.157507-.7722v-11.99144c.00216457-.26541.0556855-.52778.157507-.77214.101821-.24436.249948-.46592.435923-.65203s.406156-.33312.64797-.43264c.24181-.09952.50052-.1496.76136-.14738h15.08824c-.2827.19402-.5491.41444-.7952.65966-1.0666 1.0627-1.6658 2.50404-1.6658 4.00694 0 1.50289.5992 2.94423 1.6658 4.00693zm-8.66545-4.46304c.35586 0 .64551.31158.64551.69894v2.81261c0 .38736-.28965.69894-.64551.69894h-4.50207c-.35587 0-.64552-.31158-.64552-.69894v-2.81261c0-.38736.28965-.69894.64552-.69894z" fill="#000" fill-opacity=".2"/></g></svg>

<svg width="26" height="17" viewBox="0 0 26 17" fill="none" xmlns="http://www.w3.org/2000/svg">
<g clip-path="url(#clip0_160_8247)">
<path fill-rule="evenodd" clip-rule="evenodd" d="M16.5649 13.7621H10.1274C9.59932 13.7621 9.31494 13.5193 9.31494 12.9526C9.31494 12.3859 9.59932 12.1431 10.1274 12.1431H16.5649C17.0931 12.1431 17.3774 12.3859 17.3774 12.9526C17.3774 13.5193 17.0931 13.7621 16.5649 13.7621ZM7.68994 13.7621H3.25244C2.72432 13.7621 2.43994 13.5193 2.43994 12.9526C2.43994 12.3859 2.72432 12.1431 3.25244 12.1431H7.68994C8.21807 12.1431 8.50244 12.3859 8.50244 12.9526C8.50244 13.5193 8.21807 13.7621 7.68994 13.7621Z" fill="black" fill-opacity="0.3"/>
<path fill-rule="evenodd" clip-rule="evenodd" d="M20.3125 11.3333C18.8041 11.3333 17.3574 10.7363 16.2908 9.67361C15.2242 8.6109 14.625 7.16956 14.625 5.66667C14.625 4.16377 15.2242 2.72243 16.2908 1.65973C17.3574 0.597022 18.8041 0 20.3125 0C21.8209 0 23.2676 0.597022 24.3342 1.65973C25.4008 2.72243 26 4.16377 26 5.66667C26 7.16956 25.4008 8.6109 24.3342 9.67361C23.2676 10.7363 21.8209 11.3333 20.3125 11.3333ZM18.0538 3.31905H17.4119L15.8438 4.11238V4.92191L17.0869 4.27429V8.01429H18.0619V3.31905H18.0538ZM19.9225 3.96667C20.3856 3.96667 20.7106 4.22571 20.7106 4.5981C20.7106 5.00286 20.3288 5.28619 19.7763 5.28619H19.5325V5.97429H19.825C20.41 5.97429 20.8081 6.26572 20.8081 6.68667C20.8081 7.09143 20.4181 7.36667 19.8656 7.36667C19.4594 7.36667 19.0531 7.23714 18.6306 6.98619V7.79571C19.0856 7.99 19.5406 8.09524 19.9875 8.09524C21.0519 8.09524 21.7831 7.55286 21.7831 6.76762C21.7831 6.21714 21.4419 5.7719 20.8731 5.59381C21.3606 5.43191 21.6775 5.00286 21.6775 4.51714C21.6775 3.75619 21.0031 3.2381 20.0281 3.2381C19.5886 3.24295 19.1547 3.33659 18.7525 3.51333V4.30667C19.1425 4.0881 19.5406 3.96667 19.9225 3.96667ZM23.4325 5.73143C24.0256 5.73143 24.44 6.07952 24.44 6.53286C24.44 7.01048 24.0256 7.34238 23.4325 7.34238C23.075 7.34238 22.7013 7.22905 22.3194 6.99429V7.8281C22.7175 8.00619 23.1238 8.09524 23.5219 8.09524C23.7331 8.09524 23.9281 8.06286 24.115 8.01429C24.5375 7.32619 24.7813 6.53286 24.7813 5.68286L24.765 5.34286C24.4629 5.1647 24.1166 5.07492 23.7656 5.08381C23.6194 5.08381 23.465 5.09191 23.3025 5.11619V4.06381H24.4725C24.371 3.80469 24.2459 3.5554 24.0988 3.31905H22.4575V5.86905C22.7825 5.7881 23.1075 5.73143 23.4325 5.73143Z" fill="#656565"/>
<path fill-rule="evenodd" clip-rule="evenodd" d="M16.2958 9.6736C17.3624 10.7363 18.8091 11.3333 20.3175 11.3333C21.6715 11.3333 22.9757 10.8523 24 9.98519V15.0042C23.9935 15.5387 23.779 16.0488 23.4037 16.4229C23.0283 16.7969 22.5226 17.0044 21.9972 16.9999H2.00276C1.74192 17.0021 1.48321 16.9521 1.2414 16.8526C0.999586 16.753 0.779405 16.606 0.59343 16.4199C0.407455 16.2338 0.259328 16.0122 0.157507 15.7679C0.0556855 15.5235 0.00216457 15.2611 0 14.9957V3.00426C0.00216457 2.73885 0.0556855 2.47648 0.157507 2.23212C0.259328 1.98776 0.407455 1.7662 0.59343 1.58009C0.779405 1.39398 0.999586 1.24697 1.2414 1.14745C1.48321 1.04793 1.74192 0.99785 2.00276 1.00007H17.091C16.8083 1.19409 16.5419 1.41451 16.2958 1.65973C15.2292 2.72243 14.63 4.16377 14.63 5.66667C14.63 7.16956 15.2292 8.6109 16.2958 9.6736ZM7.63035 5.21056C7.98621 5.21056 8.27586 5.52214 8.27586 5.9095V8.72211C8.27586 9.10947 7.98621 9.42105 7.63035 9.42105H3.12828C2.77241 9.42105 2.48276 9.10947 2.48276 8.72211V5.9095C2.48276 5.52214 2.77241 5.21056 3.12828 5.21056H7.63035Z" fill="black" fill-opacity="0.2"/>
</g>
<defs>
<clipPath id="clip0_160_8247">
<rect width="26" height="17" fill="white"/>
</clipPath>
</defs>
</svg>
